brandFactory_export/1.Light/Informacion_1Light.svg

<?xml version="1.0" encoding="UTF-8"?>
<svg width="24px" height="24px" viewBox="0 0 24 24" version="1.1" xmlns="http://www.w3.org/2000/svg" xmlns:xlink="http://www.w3.org/1999/xlink">
    <title>1.Light/Informacion_1Light</title>
    <g id="Symbols" stroke="none" stroke-width="1" fill="none" fill-rule="evenodd">
        <g id="1.Light/Informacion_1Light" fill="#5CB615" fill-rule="nonzero">
            <path d="M18.3932773,20.9983193 C21.210084,19.2268908 22.6386555,16.1478992 22.6386555,11.8521008 C22.6386555,7.54957983 21.1966387,4.45714286 18.3529412,2.66554622 C16.0201681,1.19663866 13.3680672,1.00168067 12.3361345,0.988235294 C11.9865546,0.98487395 11.6369748,0.98487395 11.287395,0.991596639 C8.87058824,1.03529412 0.98487395,1.94621849 0.98487395,11.7815126 C0.98487395,16.0403361 2.44033613,19.1159664 5.31428571,20.9142857 C7.6605042,22.3865546 10.312605,22.6016807 11.3411765,22.6285714 C11.6067227,22.6352941 11.912605,22.6386555 12.2084034,22.6386555 L12.4268908,22.6386555 C13.4521008,22.6285714 16.0840336,22.4504202 18.3932773,20.9983193 Z M12.3495798,0.00336134454 C14.7226891,0.0369747899 23.6235294,0.894117647 23.6235294,11.8521008 C23.6235294,22.789916 14.8067227,23.6033613 12.4369748,23.6235294 L12.2117647,23.6235294 C11.9092437,23.6235294 11.5932773,23.6201681 11.3210084,23.6134454 C9.00504202,23.5563025 0,22.6420168 0,11.7815126 C0,0.894117647 9.01512605,0.0470588235 11.2705882,0.00672268908 C11.6302521,6.37294037e-16 11.989916,6.37294037e-16 12.3495798,0.00336134454 Z M11.8184874,9.12268908 C12.0907563,9.12268908 12.3092437,9.34453782 12.3092437,9.61344538 L12.3092437,17.2907563 C12.3092437,17.5630252 12.087395,17.7815126 11.8184874,17.7815126 C11.5495798,17.7815126 11.3277311,17.5596639 11.3277311,17.2907563 L11.3277311,9.61680672 C11.3243697,9.34453782 11.5462185,9.12268908 11.8184874,9.12268908 Z M11.8117647,6.33277311 C12.2352941,6.33277311 12.5781513,6.67563025 12.5781513,7.09915966 C12.5781513,7.52268908 12.2352941,7.86554622 11.8117647,7.86554622 C11.3882353,7.86554622 11.0453782,7.52268908 11.0453782,7.09915966 C11.0453782,6.67563025 11.3882353,6.33277311 11.8117647,6.33277311 Z" id="Informacion_1Light"></path>
        </g>
    </g>
</svg>

<svg width="24" height="24" viewBox="0 0 24 24" xmlns="http://www.w3.org/2000/svg"><path d="M18.393 20.998c2.817-1.771 4.246-4.85 4.246-9.146 0-4.302-1.442-7.395-4.286-9.186-2.333-1.47-4.985-1.664-6.017-1.678-.35-.003-.699-.003-1.049.004C8.871 1.035.985 1.946.985 11.782c0 4.258 1.455 7.334 4.33 9.132 2.346 1.473 4.998 1.688 6.026 1.715.266.006.572.01.867.01h.219c1.025-.01 3.657-.189 5.966-1.64zM12.35.003c2.373.034 11.274.891 11.274 11.85 0 10.937-8.817 11.75-11.187 11.77h-.225c-.303 0-.619-.003-.891-.01C9.005 23.556 0 22.642 0 11.782 0 .894 9.015.047 11.27.007 11.63 0 11.99 0 12.35.003zm-.532 9.12c.273 0 .491.222.491.49v7.678a.491.491 0 01-.981 0V9.617a.49.49 0 01.49-.494zm-.006-2.79a.766.766 0 110 1.532.766.766 0 010-1.532z" fill="#5CB615" fill-rule="nonzero"/></svg>
